X:1
T: Port Patrick
C:
R:Jig
Q:180
K:G
M:6/8
L:1/16
|:g2|d2B2G2 G2A2B2|c4B2 A4G2|d2B2G2 G2A2B2|A4B2 c4g2|
d2B2G2 G2A2B2|c4B2 A4G2|B2d2B2 c2A2d2|B2G2G2 G4d2|
e2c2e2 d2B2d2|e2c2e2 d2B2d2|e2f2g2 d2B2G2|A4B2 c4e2|
d2e2f2 g2f2e2|d2c2B2 A4G2|B2d2B2 c2A2d2|B2G2G2 G4:|
